X: 16465
T: Hag With The Money, The
R: jig
M: 6/8
K: Dmixolydian
Add A3|AGE G3|Add A2d|AGE EDD|
Add A3|AGE c3|ded c2A|AGE EDD||
AB^c d2d|ded d2c|AB^c d2d|ded cAG|
AB^c d2d|ede d2c|AAA c2c|AGE EDD||

